packages/foundations/assets/icons/functional/images/environment/water_drop_32.svg

<svg width="32" height="32" viewBox="0 0 32 32" fill="none" xmlns="http://www.w3.org/2000/svg">
<g clip-path="url(#clip0_185_863)">
<path fill-rule="evenodd" clip-rule="evenodd" d="M5.56201 19.4575C5.56201 17.0815 6.54801 14.4485 8.49201 11.6325C8.49201 11.6325 12.523 5.62749 14.36 2.86849C14.72 2.32749 15.322 2.00249 15.971 2.00049H15.977C16.623 2.00049 17.225 2.32049 17.586 2.85749C18.45 4.14249 19.861 6.23349 21.09 8.05349C21.399 8.51149 21.279 9.13249 20.821 9.44249C20.363 9.75049 19.742 9.63049 19.433 9.17249C18.203 7.35249 16.791 5.25949 15.927 3.97349C14.185 6.74049 10.145 12.7575 10.145 12.7575C8.42901 15.2435 7.56201 17.4945 7.56201 19.4565C7.56201 24.4075 11.111 28.0005 16 28.0005C20.889 28.0005 24.438 24.4075 24.438 19.4565C24.438 17.5855 23.64 15.4385 22.065 13.0775C21.759 12.6185 21.883 11.9975 22.342 11.6905C22.801 11.3845 23.422 11.5085 23.729 11.9675C25.526 14.6635 26.438 17.1835 26.438 19.4555C26.438 25.4665 21.951 29.9995 16 29.9995C10.049 30.0015 5.56201 25.4685 5.56201 19.4575Z" fill="#1A1C1F"/>
</g>
<defs>
<clipPath id="clip0_185_863">
<rect width="32" height="32" fill="white"/>
</clipPath>
</defs>
</svg>

<svg xmlns="http://www.w3.org/2000/svg" width="32" height="32" fill="none"><g clip-path="url(#a)"><path fill="#1A1C1F" fill-rule="evenodd" d="M5.562 19.458c0-2.376.986-5.01 2.93-7.825 0 0 4.031-6.006 5.868-8.765A1.94 1.94 0 0 1 15.971 2h.006c.646 0 1.248.32 1.609.857.864 1.285 2.275 3.376 3.504 5.196a1 1 0 0 1-1.657 1.12c-1.23-1.82-2.642-3.914-3.506-5.2-1.742 2.767-5.782 8.785-5.782 8.785-1.716 2.486-2.583 4.736-2.583 6.698 0 4.951 3.549 8.545 8.438 8.545s8.438-3.594 8.438-8.545c0-1.87-.798-4.017-2.373-6.378a1.001 1.001 0 0 1 1.664-1.11c1.797 2.696 2.709 5.215 2.709 7.488C26.438 25.466 21.951 30 16 30c-5.951.002-10.438-4.532-10.438-10.542" clip-rule="evenodd"/></g><defs><clipPath id="a"><path fill="#fff" d="M0 0h32v32H0z"/></clipPath></defs></svg>
